!!!COM: Palestrina, Giovanni Perluigi da
!!!OPR: Vestiva i colli
!!!OTL: Agnus II
**kern	**kern	**kern	**kern	**kern	**kern
*Ibass	*Itenor	*Itenor	*Icalto	*Icant	*Icant
!Bassus	!Tenor 2	!Tenor 1	!Altus	!Cantus 2	!Cantus 1
*clefF4	*clefGv2	*clefGv2	*clefG2	*clefG2	*clefG2
*k[]	*k[]	*k[]	*k[]	*k[]	*k[]
*A:aeo	*A:aeo	*A:aeo	*A:aeo	*A:aeo	*A:aeo
*M4/2	*M4/2	*M4/2	*M4/2	*M4/2	*M4/2
=1	=1	=1	=1	=1	=1
0r	0r	0r	1d	1r	0r
.	.	.	2.f	1a	.
.	.	.	4g	.	.
=2	=2	=2	=2	=2	=2
0r	0r	0r	2a	2cc	1r
.	.	.	2b-	2dd	.
.	.	.	2a	2ee	2r
.	.	.	4f	2ff	2a
.	.	.	4g	.	.
=3	=3	=3	=3	=3	=3
0r	1A	0r	4a	1.ee	2.cc
.	.	.	4b	.	.
.	.	.	1cc	.	.
.	.	.	.	.	4dd
.	2c	.	.	.	2ee
.	2d	.	4b	4dd	2ff
.	.	.	4a	4cc	.
=4	=4	=4	=4	=4	=4
0r	2e	0r	2g	2b	2ee
.	1f	.	1a	2a	2dd
.	.	.	.	1b	1ee
.	2e	.	2g#	.	.
=5	=5	=5	=5	=5	=5
1D	2.f	1r	1a	0a	2r
.	.	.	.	.	2dd
.	4g	.	.	.	.
2.F	1a	1A	2r	.	2cc
.	.	.	[2a	.	2ff
4G	.	.	.	.	.
=6	=6	=6	=6	=6	=6
2A	0r	2c	2a]	1r	2ee
2B-	.	2d	2f	.	2.dd
[1A	.	2e	1a	2r	.
.	.	.	.	.	4cc
.	.	2f	.	2a	2cc
=7	=7	=7	=7	=7	=7
2A]	2r	2e	1a	2cc	1a
2F	2a	1d	.	2dd	.
2G	2g	.	1r	1ee	1r
2A	2e	2c#	.	.	.
=8	=8	=8	=8	=8	=8
1D	2f	1d	0r	2.dd	2r
.	2d	.	.	.	2dd
.	.	.	.	8cc	.
.	.	.	.	8b	.
2r	1f	1r	.	1a	2cc
2d	.	.	.	.	2a
=9	=9	=9	=9	=9	=9
2c	1e	1r	2r	0ee	2cc
2A	.	.	2a	.	2.cc
2.c	1e	2r	2g	.	.
.	.	.	.	.	8b
.	.	.	.	.	8a
.	.	2g	2e	.	2g
4B	.	.	.	.	.
=10	=10	=10	=10	=10	=10
2A	0r	2f	2cc	2r	2a
2G	.	2g	1b	2dd	2b
2.A	.	1e	.	2cc	2.cc
.	.	.	[2a	2a	.
8G	.	.	.	.	4dd
8F	.	.	.	.	.
=11	=11	=11	=11	=11	=11
1E	2r	1.e	2a]	2cc	1ee
.	2e	.	2g#	1b	.
2A	2c	.	1a	.	1r
2D	2d	2f	.	[2a	.
=12	=12	=12	=12	=12	=12
1r	1B	2.d	0r	2a]	2r
.	.	.	.	2g#	2dd
.	.	8c	.	.	.
.	.	8d	.	.	.
2r	2A	4e	.	[1a	2cc
.	.	4c	.	.	.
2d	2f	2d	.	.	2a
=13	=13	=13	=13	=13	=13
2c	2e	1A	2r	1a]	2cc
2A	2c	.	2a	.	2.cc
2.c	1e	1r	2g	1r	.
.	.	.	.	.	8b
.	.	.	.	.	8a
.	.	.	2e	.	2g
4B	.	.	.	.	.
=14	=14	=14	=14	=14	=14
2A	2f	1r	2cc	2r	2a
2G	2g	.	2b	2dd	2b
1A	1e	2r	2a	2cc	2.cc
.	.	2a	[2e	2a	.
.	.	.	.	.	4dd
=15	=15	=15	=15	=15	=15
1E	1e	2g	4e]	2b	4ee
.	.	.	4d	.	4ff
.	.	2e	2c	2.ee	2.gg
1E	1r	2.g	2B	.	.
.	.	.	.	4dd	4ff
.	.	.	4e	2b	4ee
.	.	4f	4f	.	4dd
=16	=16	=16	=16	=16	=16
1r	0r	2e	4g	2cc	2ee
.	.	.	4e	.	.
.	.	2d	2.a	2dd	2ff
1E	.	2e	.	1b	1ee
.	.	.	4g	.	.
.	.	[2e	2g	.	.
=17	=17	=17	=17	=17	=17
2A	2r	2e]	2e	2cc	1r
2F	2a	1d	2f	2dd	.
2G	2g	.	1e	1ee	2r
2A	2e	2c#	.	.	2ee
=18	=18	=18	=18	=18	=18
1.D	2.f	1.d	[0a	0r	2dd
.	.	.	.	.	1ff
.	4e	.	.	.	.
.	2d	.	.	.	.
2A	2c#	2e	.	.	[2ee
=19	=19	=19	=19	=19	=19
1D	1d	1f	1a]	1r	4ee]
.	.	.	.	.	4dd
.	.	.	.	.	1dd
1r	1A	1e	2r	2.ee	.
.	.	.	[2a	.	2cc#
.	.	.	.	4ee	.
=20	=20	=20	=20	=20	=20
0r	2d	1r	4a]	2ff	1dd
.	.	.	4a	.	.
.	2G	.	2b-	2dd	.
.	2c	2.e	2g	2ee	1r
.	2A	.	[2a	2cc	.
.	.	4e	.	.	.
=21	=21	=21	=21	=21	=21
0r	1d	2f	2a]	2dd	1r
.	.	2d	2f	4a	.
.	.	.	.	4b	.
.	1c	2.e	2g	4cc	2.ee
.	.	.	.	4dd	.
.	.	.	2cc	2ee	.
.	.	4c	.	.	4ee
=22	=22	=22	=22	=22	=22
0r	1r	4d	2b	2.dd	2ff
.	.	4e	.	.	.
.	.	2f	1a	.	2dd
.	.	.	.	4a	.
.	2r	1e	.	1b	1ee
.	[2e	.	2g#	.	.
=23	=23	=23	=23	=23	=23
2.A	4e]	0r	1a	1a	1cc
.	4e	.	.	.	.
.	2f	.	.	.	.
4A	.	.	.	.	.
2B-	2d	.	1r	1r	2dd
2G	[2e	.	.	.	2b-
=24	=24	=24	=24	=24	=24
1A	2e]	2.e	1r	0r	1a
.	2c	.	.	.	.
.	.	4e	.	.	.
1F	2d	2f	2.a	.	1r
.	2f	2a	.	.	.
.	.	.	4a	.	.
=25	=25	=25	=25	=25	=25
2G	2e	4g	2b-	1r	0r
.	.	4f	.	.	.
2B-	1d	4e	2g	.	.
.	.	4d	.	.	.
2.A	.	1e	[1a	2.ee	.
.	2c#	.	.	.	.
4G	.	.	.	4ee	.
=26	=26	=26	=26	=26	=26
2F	1d	2A	2a]	2ff	0r
2G	.	1d	4g	2dd	.
.	.	.	4f	.	.
1E	1G	.	1g	1ee	.
.	.	2c#	.	.	.
=27	=27	=27	=27	=27	=27
1D	0A	2d	2f	2a	1r
.	.	2f	2d	1dd	.
1r	.	1e	2r	.	2.ee
.	.	.	[2a	2cc#	.
.	.	.	.	.	4ee
=28	=28	=28	=28	=28	=28
0r	0r	2d	4a]	1dd	2ff
.	.	.	4a	.	.
.	.	2G	2b-	.	2dd
.	.	2c	2g	1cc	[1ee
.	.	4A	[2a	.	.
.	.	4A	.	.	.
=29	=29	=29	=29	=29	=29
2.E	0r	1e	2a]	1b	1ee]
.	.	.	2g	.	.
4E	.	.	.	.	.
2F	.	1A	2a	1a	2cc
2D	.	.	2f	.	2dd
=30	=30	=30	=30	=30	=30
2E	2.e	0r	2g	0r	2b
2C	.	.	2e	.	2cc
.	4e	.	.	.	.
2D	2f	.	4d	.	4b
.	.	.	4c	.	4a
2F	2d	.	4B	.	[2a
.	.	.	4A	.	.
=31	=31	=31	=31	=31	=31
1E	1.e	1r	1B	2.b	2a]
.	.	.	.	.	2g#
.	.	.	.	4b	.
2.A	.	2.e	1A	1cc	1a
.	2c	.	.	.	.
4G	.	4e	.	.	.
=32	=32	=32	=32	=32	=32
2F	2d	2f	0r	2a	0r
2G	2B	2d	.	2b	.
1C	2.c	2.e	.	2g	.
.	.	.	.	4cc	.
.	4B	4d	.	4dd	.
=33	=33	=33	=33	=33	=33
0r	2A	4c	2.a	4ee	0r
.	.	4A	.	4cc	.
.	2F	2a	.	2ff	.
.	.	.	4a	.	.
.	2G	4g	2b-	4ee	.
.	.	4f	.	4dd	.
.	2B-	4e	2g	[2dd	.
.	.	4d	.	.	.
=34	=34	=34	=34	=34	=34
1r	1A	1e	1a	2dd]	2.ee
.	.	.	.	2cc#	.
.	.	.	.	.	4ee
2.D	1r	2d	[1a	1dd	2ff
.	.	2f	.	.	2dd
4D	.	.	.	.	.
=35	=35	=35	=35	=35	=35
2A	2.e	2c	1a]	1r	2ee
2A	.	2e	.	.	2cc
.	4e	.	.	.	.
1D	2f	1d	2r	2.a	2dd
.	2d	.	[2a	.	2ff
.	.	.	.	4a	.
=36	=36	=36	=36	=36	=36
2A	[0e	4c	4a]	2.cc	4ee
.	.	4B	4a	.	4dd
1A	.	4A	1cc	.	4cc
.	.	4B	.	4dd	4b
.	.	4c	.	[1ee	2a
.	.	4d	.	.	.
2G#	.	[2e	[2b	.	2b
=37	=37	=37	=37	=37	=37
2A	0e]	4e]	2b]	2ee]	2.cc
.	.	4d	.	.	.
2A	.	2c	1a	2a	.
.	.	.	.	.	4dd
1E	.	1B	.	1b	1ee
.	.	.	2g#	.	.
=38	=38	=38	=38	=38	=38
0AA	0e	0A	0a	0cc#	0ee
==	==	==	==	==	==
*-	*-	*-	*-	*-	*-
!!!CDT: 1525/^1526/-1594/2/2
!!!OCY: Italia
!!!AGN: Mass (Parody)
!!!AST: renaissance, vocal
!!!ASW: Madrigal 1566 (Palestrina)
!!!PWK: Masses, Book 9
!!!RNB: Cadence finals: D
!!!YOR: Le Opere Complete, v. 25, p. 54
!!!YOO: Rome, Italy: Fratelli Scalera
!!!END: 1992//
!!!EED: John Miller
!!!YEC: Copyright 2000, John Miller
!!!YEN: United States of America
!!!YEM: Rights to all derivative electronic formats reserved.
!!!YEM: Refer to licensing agreement for further details.
!!!YEM: This file must be accompanied by the licensing agreement.
!!!YEM: A copy of the licensing agreement may be found at http://www.music-cog.ohio-state.edu/HumdrumDatabases/Palestrina/license.txt
!!!EMD: converted to Humdrum by Bret Aarden
